X:1
T:Sing unto God
T:Sing unto God
T:William James Kirkpatrick
T:Frances Jane (Fanny) Crosby, 1881
T:Public Domain Courtesy of the Cyber Hymnal™
T:Public Domain Courtesy of the Cyber Hymnal™
C:William James Kirkpatrick
Z:Public Domain
Z:Courtesy of the Cyber Hymnal™
%%score ( 1 2 ) ( 3 4 )
L:1/8
Q:1/4=100
M:4/4
K:D
V:1 treble 
V:2 treble 
V:3 bass 
V:4 bass 
V:1
 [FA]2 [DF]>[EG] [FA]2 [Fd]2 | [Ge]>[Gd] [Gc]>[GB] [FA]2 [DF]2 | [EA]2 [CE]>[DF] [EG]2 [FA]2 | %3
w: 1.~Sing un- to God, our|hope and our de- liv’- rer;|He is the Lord, the|
w: 2.~Sing un- to God, for|He a- lone is wor- thy,|Sing un- to God, for|
w: 3.~Sing un- to God, ye|ran- somed ones in glo- ry,|Ye who have reached the|
 [Gc]>[GB] [FA]>[EG] [DF]4 | [FA]2 [DF]>[EG] [FA]2 [Fd]2 | [Ge]>[Gd] [Gc]>[GB] [FA]2 [DF]2 | %6
w: might- y theme pro- long;|Pour out your hearts in|mu- sic’s sweet- est num- bers,|
w: He a- lone is king;|Come, O ye lands, and|trust- ing His sal- va- tion,|
w: shin- ing realms of peace,|Ye who are safe with-|in the bless- èd king- dom,|
 [Fd]2 [Fd]>[Fd] [Fd]>[DB] [FA]>[EG] | [DF]2 [CE]2 D4!fine! |[K:A] E6 A>B | c6 c2 | %10
w: Pour out your hearts in mel- o-|dy and song.|Seek ye the|gates, the|
w: Sing un- to God, in grate- ful|chor- us sing.|Great is the|Lord, and|
w: Safe in that land where praise shall|ne- ver cease.|Sing un- to|God, ye|
 d4- [Fd]>[Fd] [Ec]>[EB] | c6 [CA]2 | B6 c>^d | e6 G2 | B4- B>B F>F | E6 z2 | E6 A>B | c6 c2 | %18
w: love- ly gates of Zi-|* on,|Now let His|courts with|ho- * ly rap- ture|ring;|Wake, wake a-|gain, the|
w: won- der- ful His mer-|* cy,|Strong is His|love, a-|bid- * ing ev- er-|more.|Sing un- to|God, and|
w: an- gels that be- hold|* Him,|Sing as ye|fly to|do * your sov- ereign’s|will,|Sing un- to|God, let|
 d6- [Fd]>[Fd][Ec]>[EB] | c6 [EA]2 | A6 B>c | d6 f2 | e6- e>eB>c | A6 z2!D.C.! |] %24
w: si- lent harp of Ju-|* dah;|Break forth ye|hills, and|let * the de- sert|sing.|
w: let the voice of glad-|* ness,|Break from our|hearts, and|spread * from shore to|shore.|
w: an- thems ev- er roll-|* ing,|Earth and the|sky with|joy * and glad- ness|fill.|
V:2
 x8 | x8 | x8 | x8 | x8 | x8 | x8 | x4 D4 |[K:A] (C2 C>C C2) x2 | (E2 E>E E2) x2 | F2 F3/2 F/ x4 | %11
 (E>E E>E E2) x2 | (E2 E>E E2) x2 | (G2 G>G G2) x2 | (^D2 D>D D2) D2 | (E>B,B,>B, B,2) x2 | %16
 (C2 C>C C2) x2 | (E2 E>E E2) x2 | F2 F3/2 F/ x6 | (E>E E>E E2) x2 | (=G2 G>G G2) x2 | %21
 (F2 F>F F2) x2 | (G2 G>G G2) G2 x2 | (E>EEE E2) x2 |] %24
V:3
 [D,D]2 [D,A,]>[D,A,] [D,D]2 [D,A,]2 | [G,B,]>[G,B,] [G,C]>[G,D] [D,D]2 [D,A,]2 | %2
 [A,,C]2 [A,,A,]>[A,,A,] [A,,A,]2 [A,,A,]2 | [A,,A,]>[A,,A,] [A,,A,]>[A,,A,] [D,A,]4 | %4
 [D,D]2 [D,A,]>[D,A,] [D,D]2 [D,A,]2 | [G,B,]>[G,B,] [G,C]>[G,D] [D,D]2 [D,A,]2 | %6
 [D,A,]2 [D,A,]>[D,A,] [D,A,]>[G,B,] [F,D]>[G,B,] | A,2 [A,,G,]2 [D,F,]4 | %8
[K:A] ([A,,A,]2 [A,,A,]>[A,,A,] [A,,A,]2) z2 | ([A,,A,]2 [A,,A,]>[A,,A,] [A,,A,]2) z2 | %10
 ([D,A,]2 [D,A,]>[D,A,] [D,A,]>)[D,A,] [E,A,]>[E,G,] | %11
 ([A,,A,]>[A,,A,][A,,A,]>[A,,A,] [A,,A,]2) [A,,E,]2 | ([E,G,]2 [E,G,]>[E,G,] [E,G,]2) z2 | %13
 ([E,B,]2 [E,B,]>[E,B,] [E,B,]2) z2 | ([B,,F,]2 [B,,F,]>[B,,F,] [B,,F,]2) [B,,A,]2 | %15
 ([E,G,]>[E,G,][E,G,]>[E,G,] G,2) x2 | ([A,,A,]2 [A,,A,]>[A,,A,] [A,,A,]2) z2 | %17
 ([A,,A,]2 [A,,A,]>[A,,A,] [A,,A,]2) z2 | ([D,A,]2 [D,A,]>[D,A,] [D,A,]>)[D,A,] [E,A,]>[E,G,] x2 | %19
 ([A,,A,]>[A,,A,][A,,A,]>[A,,A,] [A,,A,]2) [A,,C]2 | ([C,E]2 [C,E]>[C,E] [C,E]2) z2 | %21
 ([D,A,]2 [D,A,]>[D,A,] [D,A,]2) z2 | ([E,B,]2 [E,B,]>[E,B,] [E,B,]2) [E,D]2 x2 | %23
 ([A,,C]>[A,,C][C,C][E,C] C2) x2 |] %24
V:4
 x8 | x8 | x8 | x8 | x8 | x8 | x8 | A,2 x6 |[K:A] x8 | x8 | x8 | x8 | x8 | x8 | x8 | %15
 x4 (E,>D,C,>B,,) | x8 | x8 | x10 | x8 | x8 | x8 | x10 | x4 (A,G,F,E,) |] %24

